assets/images/T_copy.svg

<svg width="50" height="50" viewBox="0 0 50 50" fill="none" xmlns="http://www.w3.org/2000/svg">
<path d="M25 0C11.1937 0 0 11.1937 0 25C0 38.8062 11.1937 50 25 50C38.8062 50 50 38.8062 50 25C50 11.1937 38.8062 0 25 0ZM37.2792 17.1271L33.175 36.4604C32.8729 37.8312 32.0562 38.1646 30.9167 37.5187L24.6667 32.9146L21.6542 35.8187C21.3625 36.1937 20.9104 36.4333 20.4042 36.4333C20.4 36.4333 20.3979 36.4333 20.3937 36.4333L20.8375 30.0708L32.4208 19.6083C32.9208 19.1646 32.3083 18.9125 31.6437 19.3563L17.3333 28.3687L11.1667 26.4437C9.83333 26.0208 9.79583 25.1104 11.4479 24.4562L35.5438 15.1687C36.6646 14.7604 37.6396 15.4354 37.2771 17.1292L37.2792 17.1271Z" fill="#ffb92f"/>
</svg>

<svg width="50" height="50" fill="none" xmlns="http://www.w3.org/2000/svg"><path d="M25 0C11.194 0 0 11.194 0 25s11.194 25 25 25 25-11.194 25-25S38.806 0 25 0Zm12.28 17.127L33.174 36.46c-.302 1.371-1.119 1.705-2.258 1.059l-6.25-4.604-3.013 2.904a1.58 1.58 0 0 1-1.25.614h-.01l.444-6.362L32.42 19.608c.5-.443-.113-.695-.777-.252l-14.31 9.013-6.167-1.925c-1.334-.423-1.371-1.334.28-1.988l24.097-9.287c1.12-.409 2.096.266 1.733 1.96l.002-.002Z" fill="#ffb92f"/></svg>
